assets/azurefirewallmanager/original.svg

<svg height="18" viewBox="0 0 18 18" width="18" xmlns="http://www.w3.org/2000/svg" xmlns:xlink="http://www.w3.org/1999/xlink"><linearGradient id="a" gradientUnits="userSpaceOnUse" x1="13.45" x2="13.45" y1="6.3" y2="16.46"><stop offset="0" stop-color="#ffd70f"/><stop offset=".12" stop-color="#fc1"/><stop offset=".44" stop-color="#feb517"/><stop offset=".75" stop-color="#fea61a"/><stop offset="1" stop-color="#fea11b"/></linearGradient><path d="m13.95 15.81h.01z" fill="#6bb9f2"/><path d="m14.44 1.52h-13.83a.58.58 0 0 0 -.61.59v7.11a.58.58 0 0 0 .59.58h7.66v-2.8a.49.49 0 0 1 .34-.47h.13a4.9 4.9 0 0 0 3.19-1.16 2.3 2.3 0 0 1 .69-.25 4 4 0 0 1 .84-.12 4 4 0 0 1 .84.08 2.4 2.4 0 0 1 .74.27v-3.24a.58.58 0 0 0 -.58-.59m-4.22 5.64v1.84h4.06v-1.84z" fill="#821010"/><path d="m.85 2.34h4.07v1.8h-4.07z" fill="#e62323"/><path d="m5.53 2.34h4.07v1.8h-4.07z" fill="#ff7381"/><path d="m10.22 2.34h4.07v1.8h-4.07zm-9.37 2.41h1.69v1.8h-1.69z" fill="#e62323"/><path d="m14.28 4.75v.36a4 4 0 0 0 -.84-.11 4 4 0 0 0 -.84.08v-.33zm-11.12 0h4.07v1.8h-4.07z" fill="#ff7381"/><path d="m11.91 4.75v.61a4.9 4.9 0 0 1 -3.19 1.16h-.88v-1.77zm-11.06 2.42h4.07v1.8h-4.07z" fill="#e62323"/><path d="m5.53 7.16h2.72v1.8h-2.72z" fill="#ff7381"/><path d="m18 11c0 3-3.6 5.38-4.38 5.87a.32.32 0 0 1 -.3 0c-.81-.48-4.41-2.87-4.41-5.87v-3.57a.29.29 0 0 1 .28-.29c2.8-.07 2.15-1.3 4.25-1.3s1.45 1.23 4.25 1.3a.29.29 0 0 1 .28.29z" fill="#dfa500"/><path d="m13.44 11.38v-5.08c1.93 0 1.33 1.13 3.9 1.2a.26.26 0 0 1 .26.26v3.58zm0 0h-4.14c.25 2.57 3.32 4.61 4 5h.12z" fill="url(#a)"/><path d="m9.54 7.5c2.57-.07 2-1.2 3.9-1.2v5.08h-4.14v-3.62a.26.26 0 0 1 .24-.26m8.04 3.88h-4.14v5.08h.11c.72-.46 3.78-2.46 4.03-5.08" fill="#ffd400"/></svg>

<svg xmlns="http://www.w3.org/2000/svg" width="18" height="18" viewBox="0 0 18 18"><defs><linearGradient id="b9eda14d-5018-4069-8461-e9c1522765ff" x1="13.45" x2="13.45" y1="6.3" y2="16.46" gradientUnits="userSpaceOnUse"><stop offset="0" stop-color="#ffd70f"/><stop offset=".12" stop-color="#fc1"/><stop offset=".44" stop-color="#feb517"/><stop offset=".75" stop-color="#fea61a"/><stop offset="1" stop-color="#fea11b"/></linearGradient></defs><g id="be3822ce-a876-4992-8b2c-8f2bcec68a4e"><path fill="#6bb9f2" d="M13.95 15.81h.01z"/><path fill="#821010" d="M14.44 1.52H.61a.58.58 0 0 0-.61.59v7.11a.58.58 0 0 0 .59.58h7.66V7a.49.49 0 0 1 .34-.47h.13a4.9 4.9 0 0 0 3.19-1.16 2.3 2.3 0 0 1 .69-.25 4 4 0 0 1 .84-.12 4 4 0 0 1 .84.08 2.4 2.4 0 0 1 .74.27V2.11a.58.58 0 0 0-.58-.59m-4.22 5.64V9h4.06V7.16Z"/><path fill="#e62323" d="M.85 2.34h4.07v1.8H.85z"/><path fill="#ff7381" d="M5.53 2.34H9.6v1.8H5.53z"/><path fill="#e62323" d="M10.22 2.34h4.07v1.8h-4.07zM.85 4.75h1.69v1.8H.85z"/><path fill="#ff7381" d="M14.28 4.75v.36a4 4 0 0 0-.84-.11 4 4 0 0 0-.84.08v-.33ZM3.16 4.75h4.07v1.8H3.16z"/><path fill="#e62323" d="M11.91 4.75v.61a4.9 4.9 0 0 1-3.19 1.16h-.88V4.75ZM.85 7.17h4.07v1.8H.85z"/><path fill="#ff7381" d="M5.53 7.16h2.72v1.8H5.53z"/><path fill="#dfa500" d="M18 11c0 3-3.6 5.38-4.38 5.87a.32.32 0 0 1-.3 0C12.51 16.39 8.91 14 8.91 11V7.43a.29.29 0 0 1 .28-.29c2.8-.07 2.15-1.3 4.25-1.3s1.45 1.23 4.25 1.3a.29.29 0 0 1 .28.29Z"/><path fill="url(#b9eda14d-5018-4069-8461-e9c1522765ff)" d="M13.44 11.38V6.3c1.93 0 1.33 1.13 3.9 1.2a.26.26 0 0 1 .26.26v3.58Zm0 0H9.3c.25 2.57 3.32 4.61 4 5h.12Z"/><path fill="#ffd400" d="M9.54 7.5c2.57-.07 2-1.2 3.9-1.2v5.08H9.3V7.76a.26.26 0 0 1 .24-.26M17.58 11.38h-4.14v5.08h.11c.72-.46 3.78-2.46 4.03-5.08"/></g></svg>
